X: 11322
Q: "Sprightly."
M: 6/8
L: 1/8
K: Bb
cAB cAB | cAB c2f/=e/ | f=ed cBA | BGc F2 :|\
cde d2d | gfe dcB | cAB G2G |\
=BdG cec | AFA B2B/c/ | dcB fdB | fdB F2B/A/ |\


